X:1
T:Battle Hymn
T:John Whittaker (1776-1847)
T:Battle Hymn
T:Public Domain
C:John Whittaker (1776-1847)
Z:Public Domain
%%score ( 1 2 ) ( 3 4 )
L:1/8
M:2/2
K:A
V:1 treble 
V:2 treble 
V:3 bass 
V:4 bass 
V:1
 [EA]2 | [EA]4 [GB]2 [Ac]2 | [EA]4 E4 | [DF]4 (d2 B2) | (A4 G2) [DE]2 | C2 E2 [GB]2 [Ac]2 | %6
 [EA]4 [DF]4 | [CE]2 [Ec]2 (B2 G2) | [CA]8 | [Ae]4 [Ac]2 A2 | [GB]4 [Ac]2 [Bd]2 | [Ae]4 (c2 A2) | %12
 [Ac]4 [GB]4 | z2 C2 [EG]2 [DF]2 | [CE]2 [Ae]4 [Bd]2 | [Ac]4 [GB]4 | [EA]6 |] %17
V:2
 x2 | x8 | x8 | x4 F4 | E6 x2 | A4 x4 | x8 | x4 D4 | x8 | x8 | x8 | x4 A4 | x8 | [EA]4 x4 | x8 | %15
 x8 | x6 |] %17
V:3
 [A,,C]2 | [A,,C]4 (D2 E2) | [A,C]4 [C,A,]4 | [D,A,]4 (B,2 D2) | C4 B,2 [E,G,]2 | %5
 (A,2 C2) (D2 D2) | [A,,C]4 [D,A,]4 | [E,A,]4 (G,2 B,2) | [A,,A,]8 | E4 [A,E]2 [C,E]2 | %10
 [E,E]4 (E,2 D,2) | [C,E]4 (A,,2 C,2) | [E,E]8 | (C2 A,2) [A,,A,]2 [A,,A,]2 | (A,2 C4) [D,F]2 | %15
 [E,E]4 (E2 D2) | [A,,C]6 |] %17
V:4
 x2 | x4 A,,4 | x8 | x4 B,,4 | E,6 x2 | A,,4 A,,4 | x8 | x4 E,4 | x8 | x8 | x4 E4 | x4 E4 | x8 | %13
 A,,4 x4 | A,,6 x2 | x4 E,4 | x6 |] %17

